!!!CDT:
!!!PTL: Li Diversi Scherzi a una, a due et tre voci. Libro primo
!!!PPP: Rome
!!!PPR: Giovanni Battista Robletti
!!!PDT: 1613
!!!RISM: C 2214
!!!rime:
!!!AGN: Madrigal
!!!SCT: Tsg19108a
!!!SCA: Tsg19108a
!!!voices:
!!!COM: Cifra, Antonio
!!!OTL: Pietosa bocca che solevi in vita
**kern	**kern	**text	**kern	**text
*part3	*part2	*part2	*part1	*part1
*staff3	*staff2	*staff2	*staff1	*staff1
*I"Basso continuo	*I"Canto II	*	*I"Canto I	*
*I'Bc	*I'C II	*	*I'C I	*
*oclefF4	*oclefC1	*	*oclefC1	*
*clefF4	*clefG2	*	*clefG2	*
*k[b-]	*k[b-]	*	*k[b-]	*
*F:	*F:	*	*F:	*
*omet(C)	*omet(C)	*	*omet(C)	*
*M4/4	*M4/4	*	*M4/4	*
=1	=1	=1	=1	=1
!!LO:TX:a:t=Romanesca Terza, a due Soprani. [Prima stanza.]
1BB-y	2r	.	2r	.
.	2b-y	Pie-	2dd	Pie-
=2	=2	=2	=2	=2
2BB-y	2b-y	-to-	2dd	-to-
2BB-y	2b-y	-sa	2dd	-sa
=3	=3	=3	=3	=3
2F	2a	boc-	2cc	boc-
4F	2a	-ca	2cc	-ca
[4F	.	.	.	.
=4	=4	=4	=4	=4
4F]	4r	.	2r	.
4F	8a	che	.	.
.	8a	so-	.	.
2G	2b-y	-le-	4r	.
.	.	.	8dd	che
.	.	.	8dd	so-
=5	=5	=5	=5	=5
2D	2a	-vi	4ff	-le-
.	.	.	4dd	-vi
2E-X	4.a	in	4.dd	in
.	8g	vi-	8cc	vi-
=6	=6	=6	=6	=6
2.D	1a	-ta	1dd	-ta
4D	.	.	.	.
=7	=7	=7	=7	=7
4D	2r	.	2r	.
4C	.	.	.	.
[2BB-y	4r	.	4r	.
.	8dd	Con-	8ff	Con-
.	8dd	-so-	8ff	-so-
=8	=8	=8	=8	=8
4BB-]	2.dd	-la-	2.ff	-la-
4AA	.	.	.	.
2GG	.	.	.	.
.	8cc	-r'il	8ee	-r'il
.	8b-y	mio	8dd	mio
=9	=9	=9	=9	=9
1FF	1cc	duol	1ff	duol
=10	=10	=10	=10	=10
2F	2a	di	2r	.
2G	2b-y	tue	2dd	di
=11	=11	=11	=11	=11
2C	4a	pa-	4.ee-X	tue
.	2g	-ro-	.	.
.	.	.	8cc	pa-
2D	.	.	2a	-ro-
.	4f#X	.	.	.
=12	=12	=12	=12	=12
4GG	2g	-le,	2g	-le,
2G	.	.	.	.
.	2r	.	2r	.
4F#X	.	.	.	.
=13	=13	=13	=13	=13
4G	2r	.	1r	.
4A	.	.	.	.
[2B-y	4r	.	.	.
.	8ff	Con-	.	.
.	8ff	-so	.	.
=14	=14	=14	=14	=14
4B-]	2.ff	la-	4r	.
4A	.	.	8cc	Con-
.	.	.	8cc	-so-
2G	.	.	4cc	-la-
.	8ee	-r'il	8b-y	-r'il
.	8dd	mio	8a	mio
=15	=15	=15	=15	=15
1F	1ff	duol	2.cc	duol
.	.	.	4cc	di
=16	=16	=16	=16	=16
2F	4r	.	[2dd	tue
.	4a	di	.	.
2G	[4b-y	tue	16dd]L	.
.	.	.	16cc	.
.	.	.	16b-y	.
.	.	.	16aJ	.
.	16b-]L	.	[4g	.
.	16a	.	.	.
.	16g	.	.	.
.	16fJ	.	.	.
=17	=17	=17	=17	=17
2C	8e	.	4g_	.
.	8e	pa-	.	.
.	2g	-ro-	8g]	.
.	.	.	8a	pa-
2D	.	.	2a	-ro-
.	4f#X	.	.	.
=18	=18	=18	=18	=18
1GG	1g	-le.	1g	-le.
=19||	=19||	=19||	=19||	=19||
!!LO:TX:a:t=Seconda stanza.
1BB-y	1r	.	2.ff	Le-
.	.	.	8dd	-ci-
.	.	.	8cc	-to
=20	=20	=20	=20	=20
2BB-y	2.dd	Le-	1b-y	sia
2BB-y	.	.	.	.
.	8cc	-ci-	.	.
.	8b-y	-to	.	.
=21	=21	=21	=21	=21
2F	2a	sia	2r	.
4F	4r	.	4r	.
[4F	[4a	ch'an-	[4cc	ch'an-
=22	=22	=22	=22	=22
4F]	8a]L	.	8cc]L	.
.	16b-y	.	16dd	.
.	16ccJ	.	16eeJ	.
4F	4dd	.	4ff	.
2G	4.b-y	-zi	4ee-X	-zi
.	.	.	4dd	la
.	8a	la	.	.
=23	=23	=23	=23	=23
2D	4.a	mia	4.dd	mia
.	8a	par-	8f#X	par-
2E-X	2cc	-ti-	2g	-ti-
=24	=24	=24	=24	=24
2.D	1dd	-ta	2a	-ta
.	.	.	8r	.
.	.	.	8ff	D'al-
4D	.	.	8ff	-cun
.	.	.	8ff	tuo
=25	=25	=25	=25	=25
4D	2r	.	4ff	ca-
4C	.	.	4ee-X	-to
[2BB-y	8r	.	4dd	ba-
.	8dd	D'al-	.	.
.	8dd	-cun	4b-y	-cio
.	8dd	tuo	.	.
=26	=26	=26	=26	=26
4BB-]	4dd	ca-	4r	.
4AA	4cc	-ro	2ff	i'
2GG	8b-yL	ba-	.	.
.	8aJ	.	.	.
.	8.aL	.	8ee-X	mi
.	.	.	8dd	con-
.	16gJ	.	.	.
=27	=27	=27	=27	=27
1FF	2.a	-cio	4dd	-so-
.	.	.	4cc	-le,
.	.	.	2r	.
.	[4dd	i'	.	.
=28	=28	=28	=28	=28
2F	4dd]	.	4r	.
.	8cc	mi	2ee-X	i'
.	8b-y	con-	.	.
2G	8b-yL	-so-	.	.
.	8aJ	.	.	.
.	8aL	.	8dd	mi
.	8gJ	.	8cc	con-
=29	=29	=29	=29	=29
2C	8aL	.	4.cc	-so-
.	8gJ	.	.	.
.	2g	.	.	.
.	.	.	8b-y	.
2D	.	.	2a	.
.	4f#i	.	.	.
=30	=30	=30	=30	=30
4GG	2g	-le,	2g	-le,
2G	.	.	.	.
.	8r	.	2r	.
.	8a	D'al-	.	.
4F#X	8a	-cun	.	.
.	8a	tuo	.	.
=31	=31	=31	=31	=31
4G	4b-y	ca-	2r	.
4A	4cc	-ro	.	.
[2B-y	4.dd	ba-	8r	.
.	.	.	8f	D'al-
.	.	.	8f	-cun
.	8ee	.	8f	tuo
=32	=32	=32	=32	=32
4B-]	8ddL	.	4g	ca-
.	8eeJ	.	.	.
4A	2ff	.	4a	-to
2G	.	.	2b-y	ba-
.	4ee	.	.	.
=33	=33	=33	=33	=33
1F	1ff	-cio	2.a	-cio
.	.	.	[4dd	i'
=34	=34	=34	=34	=34
2F	4r	.	4dd]	.
.	2ee-X	i'	8cc	mi
.	.	.	8b-y	con-
2G	.	.	8b-yL	-so-
.	.	.	8aJ	.
.	8dd	mi	8aL	.
.	8cc	con-	8gJ	.
=35	=35	=35	=35	=35
2C	4.cc	-so-	8aL	.
.	.	.	8gJ	.
.	.	.	2g	.
.	8b-y	.	.	.
2D	2a	.	.	.
.	.	.	4f#X	.
=36	=36	=36	=36	=36
1GG	1g	-le.	1g	-le.
=37||	=37||	=37||	=37||	=37||
!	!	!	!LO:TX:a:t=Terza stanza.	!
1BB-y	2r	.	2r	.
.	2b-y	E	2dd	E
=38	=38	=38	=38	=38
2BB-y	2dd	for-	2ff	for-
2BB-y	2b-y	-se al-	2dd	-se al-
=39	=39	=39	=39	=39
2F	2.a	-l'hor,	4cc	-l'hor,
.	.	.	2cc	s'e-
4F	.	.	.	.
[4F	[4a	s'e-	8dd	-ro a
.	.	.	8ee	cer-
=40	=40	=40	=40	=40
4F]	4a]	.	2ff	-car-
4F	8b-y	-ro a	.	.
.	8cc	cer-	.	.
2G	2dd	-car-	4.b-y	.
.	.	.	8cc	-lo ar-
=41	=41	=41	=41	=41
2D	16ddL	-lo ar-	2.dd	-di-
.	16cc	.	.	.
.	32b-y	.	.	.
.	32a	.	.	.
.	16gJ	.	.	.
.	4f	.	.	.
2E-X	2g	-di-	.	.
.	.	.	4cc	.
=42	=42	=42	=42	=42
2.D	2a	-ta,	1dd	-ta,
.	4r	.	.	.
4D	4f	Quel	.	.
=43	=43	=43	=43	=43
4D	4g	da-	2r	.
4C	4a	-vi	.	.
[2BB-y	2d	tu	4r	.
.	.	.	4dd	Quel
=44	=44	=44	=44	=44
4BB-]	2r	.	4ee	da-
4AA	.	.	4ff	-vi
2GG	4r	.	2b-y	tu
.	[4dd	ch'o-	.	.
=45	=45	=45	=45	=45
1FF	4dd]	.	4r	.
.	8cc	-ra	2ff	ch'o-
.	8b-y	con-	.	.
.	[2a	-vien	.	.
.	.	.	8ee	-ra
.	.	.	8dd	con-
=46	=46	=46	=46	=46
2F	8a]L	.	8ccL	-vien
.	16b-y	.	16dd	.
.	16ccJ	.	16ee-XJ	.
.	4.b-y	.	4.dd	.
2G	.	.	.	.
.	16aL	.	16ccL	.
.	16gJ	.	16b-yJ	.
.	8fL	.	[4a	ch'in-
.	8gJ	.	.	.
=47	=47	=47	=47	=47
2C	8e	.	4a]	.
.	8f	ch'in-	.	.
.	2g	-vo-	8aL	.
.	.	.	16b-y	.
.	.	.	16ccJ	.
2D	.	.	2a	-vo-
.	4f#i	.	.	.
=48	=48	=48	=48	=48
4GG	2g	-le,	2g	-le,
2G	.	.	.	.
.	4r	.	2r	.
4F#X	4dd	Quel	.	.
=49	=49	=49	=49	=49
4G	4dd	da-	1r	.
4A	4cc	-vi	.	.
[2B-y	2dd	tu,	.	.
=50	=50	=50	=50	=50
4B-]	4r	.	4r	.
4A	4cc	<Quel	4ff	Quel
2G	4cc	da-	4ff	da-
.	4b-y	-vi	4ee	-vi
=51	=51	=51	=51	=51
1F	1cc	tu>	1ff	tu
=52	=52	=52	=52	=52
2F	4dd	ch'o-	2r	.
.	8a	-ra	.	.
.	8a	con-	.	.
2G	2b-y	-vien	4gg	ch'o-
.	.	.	8dd	-ra
.	.	.	8dd	con-
=53	=53	=53	=53	=53
2C	4a	ch'in-	4.ee-X	-vien
.	2g	-vo-	.	.
.	.	.	8a	ch'in-
2D	.	.	2a	-vo-
.	4f#X	.	.	.
=54	=54	=54	=54	=54
1GG	1g	-le.	1g	-le.
=55||	=55||	=55||	=55||	=55||
!	!	!	!LO:TX:a:t=Quarta stanza.	!
1B-y	1r	.	2r	.
.	.	.	8r	.
.	.	.	16dL	Le-
.	.	.	16eJ	.
.	.	.	16fL	.
.	.	.	16g	.
.	.	.	32a	.
.	.	.	32b-y	.
.	.	.	32cc	.
.	.	.	32b-yJ	.
=56	=56	=56	=56	=56
2A	8r	.	4.cc	.
.	16fL	Le-	.	.
.	16gJ	.	.	.
.	16aL	.	.	.
.	16b-y	.	.	.
.	32cc	.	8b-y	-ci-
.	32dd	.	.	.
.	32ee-X	.	.	.
.	32ddJ	.	.	.
2G	4ee-X	.	2b-y	-to
.	8dd	-ci-	.	.
.	8cc	-to	.	.
=57	=57	=57	=57	=57
2F	1cc	sia	2a	sai
4F	.	.	4a	ch'o-
[4F	.	.	8a	-ra
.	.	.	8a	ti
=58	=58	=58	=58	=58
4F]	4a	ch'o-	2.dd	strin-
4F	8a	-ra	.	.
.	8a	ti	.	.
2G	[2dd	strin-	.	.
.	.	.	16ccL	-ga, e
.	.	.	16b-y	.
.	.	.	16a	.
.	.	.	16gJ	.
=59	=59	=59	=59	=59
2D	4dd]	.	2a	.
.	16ee-XL	-ga, e	.	.
.	16dd	.	.	.
.	16cc	.	.	.
.	16b-yJ	.	.	.
2E-X	2cc	po-	2g	po-
=60	=60	=60	=60	=60
2.D	1dd	-i	1a	-i
4D	.	.	.	.
=61	=61	=61	=61	=61
4D	1r	.	16dL	Ver-
.	.	.	16e	.
.	.	.	16f	.
.	.	.	16gJ	.
4C	.	.	16aL	.
.	.	.	16b-y	.
.	.	.	16cc	.
.	.	.	16aJ	.
[2BB-y	.	.	[2dd	.
=62	=62	=62	=62	=62
4BB-]	16dL	Ver-	4dd]	.
.	16e	.	.	.
.	16f	.	.	.
.	16gJ	.	.	.
4AA	16aL	.	8cc	-si
.	16b-y	.	.	.
.	16cc	.	8cc	lo
.	16aJ	.	.	.
2GG	4dd	.	4.b-y	spir-
.	8dd	-si	.	.
.	8cc	lo	8a	-to
=63	=63	=63	=63	=63
1FF	8cc	spir-	1a	mio
.	8b-y	-to	.	.
.	[2.cc	mio	.	.
=64	=64	=64	=64	=64
2F	4cc]	.	2a	fra
.	4b-y	fra	.	.
2E-X	[2b-y	la-	2g	la-
=65	=65	=65	=65	=65
2C	4b-]	.	4e	-bri
.	4a	-bri	2g	tuo-
2D	2a	tuo-	.	.
.	.	.	4f#i	.
=66	=66	=66	=66	=66
4GG	2g	-i,	2g	-i,
2G	.	.	.	.
.	2r	.	2r	.
4F#X	.	.	.	.
=67	=67	=67	=67	=67
4G	4b-y	Ver-	2r	.
4A	8aL	.	.	.
.	8gJ	.	.	.
[2B-y	4.f	.	8ffL	Ver-
.	.	.	8eeJ	.
.	.	.	8ddL	.
.	8e	.	8ccJ	.
=68	=68	=68	=68	=68
4B-]	8dL	.	2b-y	.
.	8eJ	.	.	.
4A	4f	.	.	.
2G	8g	-si	8b-y	-si
.	8a	lo	8cc	lo
.	8a	spir-	8cc	spir-
.	8g	-to	8b-y	-to
=69	=69	=69	=69	=69
1F	1a	mio	1cc	mio
=70	=70	=70	=70	=70
2F	2r	.	16fL	fra
.	.	.	16g	.
.	.	.	16a	.
.	.	.	16b-yJ	.
.	.	.	16ccL	.
.	.	.	16dd	.
.	.	.	16ee	.
.	.	.	16ffJ	.
2G	16gL	fra	[2dd	.
.	16a	.	.	.
.	16b-y	.	.	.
.	16ccJ	.	.	.
.	16ddL	.	.	.
.	16ee	.	.	.
.	16ff	.	.	.
.	16ggJ	.	.	.
=71	=71	=71	=71	=71
2C	4.ee-X	la-	8dd]	.
.	.	.	8g	la-
.	.	.	2g	-bri
.	8a	-bri	.	.
2D	2a	tuo-	.	.
.	.	.	4f#X	tuo-
=72	=72	=72	=72	=72
1GGl	1gl	-i.	1gl	-i.
==	==	==	==	==
*-	*-	*-	*-	*-
!!!system-decoration: [*]
!!!RDF**kern: i = editorial accidental
!!!RDF**kern: l = terminal long
!!!ENC: Emiliano Ricciardi
!!!END:
!!!EED: Ricciardi, Emiliano
!!!EEV: 2020/02/09
!!!YEC: Copyright 2018 Emiliano Ricciardi, All Rights Reserved
!!!ONB: Translated from MusicXML on 2020/02/09
!!@@BEGIN:	VERSEDATA
!!@CATALOGNUM:	Tsg19108
!!@LAST_MODIFIED: 2020/07/12
!!@TITLE:		Pietosa bocca che solevi in vita
!!@CANTO:		XIX
!!@OTTAVA:	108
!!@MANUSRC:	G-Al, G-Au, G-Br<sub>2</sub>, G-Es<sub>1</sub>, G-Es<sub>2</sub>, G-Es<sub>3</sub>, G-F, G-Fr, G-Fr<sub>1</sub>, G-Fr<sub>2</sub>, G-Mc<sub>1</sub>, G-Mr, G-Mt, G-N
!!@PRINTSRC:	G-1580CM, G-1581B, G-1581CV, G-1581R, G-1581MR, G-1581P, G-1581V, G-1581V<sub>bis</sub>, G-1582C, G-1582M, G-1582MC, G-1582P, G-1582SC, G-1582SC<sub>bis</sub>, G-1583S, G-1584O, G-1584S, G-1585C, G-1585S, G-1588S, G-1589S, G-1590B, G-1590S, G-1592S, G-1593S, G-1594C, G-1595C, G-1597C, G-1598C, G-1599C, G-1600C, G-1600S, G-1601C, G-1601R, G-1602C, G-1604C, G-1604Cl, G-1604F, G-1604P, G-1606B, G-1606B<sub>bis</sub>, G-1606L, G-1607ZR, G-1608DP, G-1609GC, G-1610M, G-1611S, G-1611V, G-1612P, G-1613M, G-1613P, G-1613V, G-1615P, G-1616M, G-1617P, G-1619B, G-1619V, G-1620M, G-1620S, G-1621R, G-1624I, G-1624MT, G-1625C, G-1625S, G-1625SS, G-1626C, G-1626Co, G-1627M, G-1628T, G-1628Tu, G-1630L, G-1630T, G-1632FT, G-1639CF, G-1642M, G-1643I, G-1644P, G-1644S
!!@@BEGIN:	VERSES
!!@ABOUTIT:
!!@ABOUTEN:
!!@EDITOR:	Angelo Solerti
!!@EDITION_TITLE: Gerusalemme liberata. Poema eroico di Torquato Tasso. Edizione critica sui manoscritti e le prime stampe.
!!@EDITION_LOC:	Florence
!!@EDITION_PUB:	G. Barbera
!!@EDITION_DATE:  1895
!!@EDITION_VOL:
!!@EDITION_PAGE:
!!@TRANSLATOR:	Emiliano Ricciardi and Amyrose McCue Gill
!!@VERSE:
!!	Pietosa bocca, che solevi in vita
!!	Consolar il mio duol di tue parole,
!!	Lecito sia ch’anzi la mia partita
!!	D’alcun tuo caro bacio io mi console.
!!	E forse allor, s’era a cercarlo ardita,
!!	Quel davi tu, ch’ora convien che invole.
!!	Lecito sia ch’ora ti stringa, e poi
!!	Versi lo spirto mio fra i labbri tuoi.
!!@TVERSE:
!!	Compassionate mouth, which used in life
!!	To console my pain with your words,
!!	May it be permitted that before my departure
!!	Some of your dear kisses console me.
!!	And perhaps thus, if it had been dared to seek it,
!!	That which you were giving, it is now appropriate to steal.
!!	May it be permitted that now I cling to you, and then [that]
!!	I pour my breath between your lips.
!!@@END:		VERSES
!!@OTHER_CRIT_ED:  Torquato Tasso, <i>Gerusalemme liberata</i>, ed. Lanfranco Caretti, 2 vols. (Bari: Laterza, 1967).
!!@ATTRIBUTION_ABOUT:
!!@DATING:	mid-1560s through 1570s
!!@DEDICATEE:	Duke Alfonso II d'Este
!!@COMMENTARY:
!!@@END:		VERSEDATA
!!@@BEGIN: SETTING
!!@CATALOGNUM:	Tsg19108a
!!@CANTO:		XIX
!!@OTTAVA:	108
!!@TITLE:	Pietosa bocca che solevi in vita
!!@COMPOSER:	Cifra, Antonio
!!@PARTS:		4 (verses 1-2; 3-4; 5-6; 7-8)
!!@PRINCEPSTITLE:	Li Diversi Scherzi a una, a due et tre voci. Libro primo
!!@PRINCEPSLOC:	Rome
!!@NORMLOC:	Rome
!!@NORMPUB:	Giovanni Battista Robletti
!!@NORMPUBSHORT:	Robletti
!!@PRINCEPSPUB:	Giovanni Battista Robletti
!!@PRINCEPSYEAR:	1613
!!@PRINCEPSRISM:	C 2214
!!@OVOICES:	2+bc
!!@EXTANTVOICES:	2+bc
!!@OMENSURATION:	C
!!@OCLEFS:	C1,C1,F4
!!@OTIME:		
!!@OKEYSIG:	b-
!!@FINAL:		(G)(G)(G)G
!!@TIMPEDITOR:	Ricciardi, Emiliano
!!@REPRINTS:	
!!@@END: SETTING
